pro/src/icons/stroke-trash.svg

<svg width="48" height="48" viewBox="0 0 48 48" fill="none" xmlns="http://www.w3.org/2000/svg">
<path id="icon" fill="currentColor" fill-rule="evenodd" clip-rule="evenodd" d="M19 4C18.4523 4 18 4.45228 18 5V8H30V5C30 4.45228 29.5477 4 29 4H19ZM16 5C16 3.34772 17.3477 2 19 2H29C30.6523 2 32 3.34772 32 5V8.09998H41C41.5523 8.09998 42 8.54769 42 9.09998C42 9.65226 41.5523 10.1 41 10.1H7C6.44772 10.1 6 9.65226 6 9.09998C6 8.54769 6.44772 8.09998 7 8.09998H16V5ZM10.998 13.9356C10.9624 13.3845 10.4867 12.9665 9.93561 13.0021C9.38447 13.0377 8.96653 13.5133 9.00211 14.0645L10.8221 42.2538C10.9557 44.3594 12.7017 46 14.81 46H33.19C35.2982 46 37.0441 44.3598 37.178 42.2545L37.178 42.2532L38.998 14.0645C39.0335 13.5133 38.6156 13.0377 38.0645 13.0021C37.5133 12.9665 37.0377 13.3845 37.0021 13.9356L35.1821 42.1256L35.182 42.1269C35.1153 43.181 34.2415 44 33.19 44H14.81C13.7586 44 12.8848 43.181 12.818 42.1269L10.998 13.9356ZM25 17.4902C25 16.9379 24.5523 16.4902 24 16.4902C23.4477 16.4902 23 16.9379 23 17.4902V38.5102C23 39.0625 23.4477 39.5102 24 39.5102C24.5523 39.5102 25 39.0625 25 38.5102V17.4902ZM16.9525 16.4914C17.5042 16.4651 17.9726 16.8911 17.9989 17.4427L18.9989 38.4627C19.0251 39.0144 18.5992 39.4829 18.0475 39.5091C17.4959 39.5354 17.0274 39.1094 17.0012 38.5578L16.0012 17.5378C15.9749 16.9861 16.4008 16.5176 16.9525 16.4914ZM31.9989 17.5378C32.0251 16.9861 31.5992 16.5176 31.0475 16.4914C30.4959 16.4651 30.0274 16.8911 30.0012 17.4427L29.0012 38.4627C28.9749 39.0144 29.4008 39.4829 29.9525 39.5091C30.5042 39.5354 30.9726 39.1094 30.9989 38.5578L31.9989 17.5378Z"/>
</svg>

<svg xmlns="http://www.w3.org/2000/svg" width="48" height="48" fill="none"><path id="icon" fill="currentColor" fill-rule="evenodd" d="M19 4c-.548 0-1 .452-1 1v3h12V5c0-.548-.452-1-1-1zm-3 1c0-1.652 1.348-3 3-3h10c1.652 0 3 1.348 3 3v3.1h9a1 1 0 1 1 0 2H7a1 1 0 0 1 0-2h9zm-5.002 8.936a1 1 0 0 0-1.996.129l1.82 28.189A4 4 0 0 0 14.81 46h18.38a4 4 0 0 0 3.988-3.745v-.002l1.82-28.188a1 1 0 0 0-1.996-.13l-1.82 28.19v.002A2 2 0 0 1 33.19 44H14.81a2 2 0 0 1-1.992-1.873zM25 17.49a1 1 0 1 0-2 0v21.02a1 1 0 1 0 2 0zm-8.047-.999a1 1 0 0 1 1.046.952l1 21.02a1 1 0 0 1-1.998.095l-1-21.02a1 1 0 0 1 .951-1.047m15.046 1.047A1 1 0 0 0 30 17.443l-1 21.02a1 1 0 1 0 1.998.095z" clip-rule="evenodd"/></svg>
